!!!!SEGMENT: pl-kk--kk-i-482--006_zieleniewicz-mathias--msza-2ga-kyrie.krn
!!!cenid: 17xx:1914
!!!COM: Zieleniewicz, Mathias
!!!COM-rismid: pe50045913
!!!CDT: <1724->1763
!!!CNT: Polish
!!!OPR: Msza 2ga
!!!OTL: Kyrie
!!!OMV: 001
!!!PDT: 1724
!!!AGN: Sacred; Mass
!!!SMS-siglum: PL-Kk
!!!SMS-shelfmark: Kk.I.482
!!!SMS-shelfwork: 002-001 M
!!!SMS-variant: Soprano. PL-Kk Kk.I.482:015-017 ; Alto.:019-021 ; Tenore.:025-027
!!!SMS-altvar: Soprano. PL-Kk Kk.I.482:035-037 ; Alto.:039-041 ; Tenore.:044-045
!!!NIFC-rismid: 1001140324
!!!URL-scan: http://repozytorium.nifc.pl/skany/pl-kk-nut--i-482
!!!ONB-nifc: UWAGA: zakres skanów 0015-0031. Proszę uzupełnić pola !!!SMS dot. partytury i głosów. UWAGA: w zbiorze Msza Isza i Msza 2ga. Części Mszy 2giej: 6. Kyrie, 7. Gloria, 8. Sanctus, 9. Benedictus, 10. Agnus
!!!key:
**kern	**text	**kern	**text	**kern	**text	**kern	**text
*part4	*part4	*part3	*part3	*part2	*part2	*part1	*part1
*staff4	*staff4	*staff3	*staff3	*staff2	*staff2	*staff1	*staff1
*Ibass	*	*Itenor	*	*Ialto	*	*Isoprn	*
*I"Basso.	*	*I"Tenore.	*	*I"Alto.	*	*I"Soprano.	*
*I'B	*	*I'T	*	*I'A	*	*I'S	*
*group1	*	*group1	*	*group1	*	*group1	*
*clefF4	*	*clefC4	*	*clefC3	*	*clefC1	*
*k[b-]	*	*k[b-]	*	*k[b-]	*	*k[b-]	*
*d:	*	*d:	*	*d:	*	*d:	*
*M2/2	*	*M2/2	*	*M2/2	*	*M2/2	*
*met(c|)	*	*met(c|)	*	*met(c|)	*	*met(c|)	*
=1	=1	=1	=1	=1	=1	=1	=1
*2\right	*	*	*	*2\right	*	*	*
*^	*	*	*	*	*	*	*
!LO:TX:t=P:problem=w taktach 1-9 głosy wspomagające powinny brzmieć w kluczach odpowiednio altowym, tenorowym i sopranowym	!	!	!	!	!	!	!	!
!LO:TX:t=P:problem=all\right&colon; global	!	!	!	!	!	!	!	!
!LO:TX:t=P:problem=w taktach 1-9 pierwszy głos mniejszą czcionką	!	!	!	!	!	!	!	!
!LO:TX:a:t=Alto	!	!	!	!	!	!	!	!
!LO:TX:b:t=1	!	!	!LO:TX:a:t=4.	!	!LO:TX:t=P:problem=all\right&colon; global	!	!LO:TX:a:t=6.	!
2.E/	1r	Ky-	00r	.	2.d\	Ky-	00r	.
4E/	.	-ri-	.	.	4d\	-ri-	.	.
=2	=2	=2	=2	=2	=2	=2	=2	=2
!LO:TX:b:t=2	!	!	!	!	!	!	!	!
2F/	1r	-e	.	.	2e\	-e	.	.
2G/	.	e-	.	.	2f\	e-	.	.
=3	=3	=3	=3	=3	=3	=3	=3	=3
!LO:TX:b:t=3	!	!	!	!	!	!	!	!
2A/	1r	-le-	.	.	2g\	-le-	.	.
2B-/	.	-i-	.	.	2a\	-i-	.	.
=4	=4	=4	=4	=4	=4	=4	=4	=4
!LO:TX:b:t=4	!	!	!	!	!	!	!	!
2E/	1r	-son.	.	.	2d\	-son	.	.
!LO:TX:a:t=Tenor	!	!	!	!	!	!	!	!
2E/	.	.	.	.	2d\	e-	.	.
=5	=5	=5	=5	=5	=5	=5	=5	=5
*	*	*	*2\right	*	*	*	*	*
!LO:TX:b:t=5	!	!	!LO:TX:t=P:problem=all\right&colon; global	!	!	!	!	!
2.D/	1r	.	2.A\	Ky-	2e\	-le-	0r	.
.	.	.	.	.	2a\	-i-	.	.
4D/	.	.	4A\	-ri-	.	.	.	.
=6	=6	=6	=6	=6	=6	=6	=6	=6
!LO:TX:b:t=6	!	!	!	!	!	!	!	!
2En/	1r	.	2Bn\	-e	4g#X\	-son	.	.
.	.	.	.	.	4g#\	e-	.	.
2F/	.	.	2c\	e-	[2a\	-le-	.	.
=7	=7	=7	=7	=7	=7	=7	=7	=7
*	*	*	*	*	*	*	*2\right	*
*	*^	*	*	*	*	*	*	*
!LO:TX:a:t=Sopr	!	!	!	!	!	!	!	!	!
!LO:TX:t=P:problem=w takcie 7 trzeci głos mniejszą czcionką	!	!	!	!	!	!	!	!	!
!LO:TX:b:t=7	!	!	!	!	!	!	!	!LO:TX:t=P:problem=all\right&colon; global	!
2G/	1r	2.F-X\	.	2d\	-le-	2a\]	.	2.b-X\	Ky-
2A/	.	.	.	2e\	-i-	2g#X\	-i-	.	.
.	.	4F-\	.	.	.	.	.	4b-\	-ri-
*	*v	*v	*	*	*	*	*	*	*
!	!	!	!	!	!LO:LB:g=original	!	!	!
=8	=8	=8	=8	=8	=8	=8	=8	=8
!LO:TX:b:t=8	!	!	!	!	!	!	!	!
2G/	1r	.	2A\	-son	2a\	-son,	2cc\	-e
2G#X/	.	.	2A\	e-	[2a\	Ky-	2cc#X\	e-
=9	=9	=9	=9	=9	=9	=9	=9	=9
!LO:TX:b:t=9.	!	!	!	!	!	!	!	!
2A/	1r	.	2Bn\	-le-	2a\]	.	2dd\	-le-
2B-/	.	.	2c#X\	-i-	2g\	-ri-	2ee\	-i-
*v	*v	*	*	*	*	*	*	*
=10	=10	=10	=10	=10	=10	=10	=10
!LO:TX:a:t=Baſso	!	!	!	!	!	!	!
2.D\	Ky-	2d\	-son.	2f\	-e	1a	-son,
.	.	4d\	Ky-	2a\	e-	.	.
4D\	-ri-	4d\	-ri-	.	.	.	.
!LO:LB:g=original	!	!	!	!	!	!	!
=11	=11	=11	=11	=11	=11	=11	=11
!	!	!	!	!	!	!LO:TX:a:t=3.	!
2E\	-e	4c#X\	-e	2g\	-le-	0r	.
.	.	4c#\	e-	.	.	.	.
2F\	e-	[2d\	-le-	2f\	-i-	.	.
!	!	!LO:LB:g=original	!	!	!	!	!
=12	=12	=12	=12	=12	=12	=12	=12
2G\	-le-	2d\]	.	1e	-son,	.	.
2A\	-i-	2c#X\	-i-	.	.	.	.
=13	=13	=13	=13	=13	=13	=13	=13
2D\	-son	2d\	-son,	1f	e-	1r	.
2D\	.	2d\	e-	.	.	.	.
=14	=14	=14	=14	=14	=14	=14	=14
2E\	le-	2cn\	-le-	1e	-lei-	2.a\	Ky-
2A\	-i-	2c\	-i-	.	.	.	.
.	.	.	.	.	.	4a\	-ri-
=15	=15	=15	=15	=15	=15	=15	=15
4G#X\	-son	2B-X\	-son.	1e	-son	2b-\	-e
4G#\	e-	.	.	.	.	.	.
[2A\	-le-	2r	.	.	.	2cc\	e-
!	!	!	!	!	!	!LO:LB:g=original	!
=16	=16	=16	=16	=16	=16	=16	=16
2A\]	.	2.B-X\	Ky-	2r	.	2dd\	-le-
2G#X\	-i-	.	.	4e\	Ky-	2ee\	-i-
.	.	4B-\	-ri-	4e\	-ri-	.	.
=17	=17	=17	=17	=17	=17	=17	=17
2A\	-son	2c\	-e	2e\	-e	2a\	-son
2A\	e-	2c#X\	e-	2e\	e-	2a\	e-
=18	=18	=18	=18	=18	=18	=18	=18
2A\	-le-	2d\	-le-	2f\	-le-	2b-X\	-le-
2G\	-i-	2e\	-i-	2g\	-i-	2cc#X\	.
!	!	!	!	!LO:LB:g=original	!	!	!
=19	=19	=19	=19	=19	=19	=19	=19
2F\	-son	4f\	-son,	1a	-son	4dd\	.
.	.	4f\	e-	.	.	4a\	.
2D\	e-	4f\	-le-	.	.	[2dd\	.
.	.	4f\	-i-	.	.	.	.
=20	=20	=20	=20	=20	=20	=20	=20
2.A\	-le-	1e	-son.	2r	.	2dd\]	.
.	.	.	.	4e\	Ky-	2ccn\	-i-
4G\	-i-	.	.	4e\	-ri-	.	.
!LO:LB:g=original	!	!LO:LB:g=original	!	!	!	!	!
=21	=21	=21	=21	=21	=21	=21	=21
2F#X\	-son	1d	Ky-	2f#X\	-e	1cc	-son,
2D\	e-	.	.	2a\	e-	.	.
=22	=22	=22	=22	=22	=22	=22	=22
2.G\	-le-	1d	-ri-	4a\	-le-	2.b-X\	Ky-
.	.	.	.	4a\	-i-	.	.
.	.	.	.	[2g\	-son	.	.
4Fn\	-i-	.	.	.	.	4b-\	-ri-
=23	=23	=23	=23	=23	=23	=23	=23
2E\	-son	2e\	-e	2g\]	.	2.b-\	-e
2C/	e-	2e\	e-	2g\	e-	.	.
.	.	.	.	.	.	4b-\	e-
=24	=24	=24	=24	=24	=24	=24	=24
4F\	-le-	2c\	-le-	2g\	-le-	2a\	-le-
4G\	.	.	.	.	.	.	.
4A\	.	2c\	-i-	2f\	-i-	2a\	-i-
4B-X\	-i-	.	.	.	.	.	.
!	!	!	!	!	!	!LO:LB:g=original	!
=25	=25	=25	=25	=25	=25	=25	=25
1c	-son.	2c\	-son	2e\	-son	2g\	-son
.	.	2c\	e-	2e\	e-	2g\	e-
=26	=26	=26	=26	=26	=26	=26	=26
!LO:TX:a:t=1.	!	!	!	!	!	!	!
1r	.	2c\	-le-	2d\	-le-	2f/	-le-
.	.	2B-X\	-i-	2e\	-i-	2g/	-i-
=27	=27	=27	=27	=27	=27	=27	=27
2r	.	2A\	-son	1f	-son,	1a	-son,
[2D\	e-	2A\	e-	.	.	.	.
!	!	!	!	!LO:LB:g=original	!	!	!
=28	=28	=28	=28	=28	=28	=28	=28
!	!	!	!	!	!	!LO:TX:a:t=2	!
2D\]	-le-	2Bn\	-le-	2.g\	Ky-	0r	.
2C/	-i-	2c#X\	-i-	.	.	.	.
.	.	.	.	4g\	-ri-	.	.
=29	=29	=29	=29	=29	=29	=29	=29
2BB-/	-son,	1d	-son.	2f\	-e	.	.
[2B-X\	Ky-	.	.	2f\	e-	.	.
=30	=30	=30	=30	=30	=30	=30	=30
!	!	!LO:TX:a:t=1.	!	!	!	!	!
2B-\]	.	1r	.	2e\	-le-	2.cc\	Ky-
2A\	-ri-	.	.	2f#X\	-i-	.	.
.	.	.	.	.	.	4cc\	-ri-
!LO:LB:g=original	!	!LO:LB:g=original	!	!	!	!	!
=31	=31	=31	=31	=31	=31	=31	=31
2G\	-e	2r	.	2g\	-son	2b-X\	-e
2G\	e-	2d\	Ky-	2g\	e-	2b-\	e-
=32	=32	=32	=32	=32	=32	=32	=32
2G\	-le-	2e\	.	2g\	-le-	2b-\	-le-
2G\	-i-	2d\	-ri-	2fn\	-i-	2b-\	-i-
=33	=33	=33	=33	=33	=33	=33	=33
2A\	-son,	2c#X\	-e,	2e\	-son,	1a	-son,
4A\	Ky-	4A\	Ky-	4c#X\	Ky-	.	.
4A\	-ri-	4A\	-ri-	4c#\	-ri-	.	.
=34	=34	=34	=34	=34	=34	=34	=34
!	!	!	!	!	!	!LO:TX:a:t=2	!
2A\	-e	2B-\	-e	2d\	-e	1r	.
2G\	e-	2c#X\	e-	2e\	e-	.	.
=35	=35	=35	=35	=35	=35	=35	=35
2F\	-le-	2d\	-le-	2f\	-le-	1r	.
2E\	-i-	2e\	-i-	2g\	-i-	.	.
=36	=36	=36	=36	=36	=36	=36	=36
1D	-son,	4A\	-son,	2f\	-son,	2.f/	Ky-
.	.	4A\	e-	.	.	.	.
!	!	!	!	!LO:LB:g=original	!	!	!
.	.	[2d\	-le-	4d\	Ky-	.	.
.	.	.	.	4d\	-ri-	4f/	-ri-
=37	=37	=37	=37	=37	=37	=37	=37
!LO:TX:a:t=2	!	!	!	!	!	!	!
0r	.	2d\]	.	2e\	-e	2g\	-e
.	.	2c\	.	2f#X\	e-	2a\	e-
!	!	!	!	!	!	!LO:LB:g=original	!
=38	=38	=38	=38	=38	=38	=38	=38
.	.	2B-X\	.	2g\	-le-	2b-X\	-le-
.	.	2A\	-i-	2a\	-i-	2cc\	-i-
=39	=39	=39	=39	=39	=39	=39	=39
2r	.	1G	-son.	1d	-son	2b-X\	-son
[2G\	Ky-	.	.	.	.	4g\	Ky-
.	.	.	.	.	.	4g\	-ri-
!	!	!LO:LB:g=original	!	!	!	!	!
=40	=40	=40	=40	=40	=40	=40	=40
2G\]	.	2r	.	2r	.	2a\	-e
2F\	-ri-	4d\	Ky-	4g\	Ky-	2bn\	e-
.	.	4d\	-ri-	4g\	-ri-	.	.
=41	=41	=41	=41	=41	=41	=41	=41
2E\	-e	2e\	-e	2g\	-e	2cc#X\	-le-
2D\	e-	2f\	e-	2a\	e-	2dd\	-i-
!LO:LB:g=original	!	!	!	!	!	!	!
=42	=42	=42	=42	=42	=42	=42	=42
(>2C#X/	-le-	2e\	-le-	2g\	-le-	2a\	-son
2D/)	.	2d\	-i-	2f\	-i-	2a\	e-
=43	=43	=43	=43	=43	=43	=43	=43
!LO:N:vis=1.	!	!	!	!	!	!LO:N:vis=1.	!
[1A	.	4c#X\	-son	2e\	-son	1a	-le-
.	.	4c#\	e-	.	.	.	.
.	.	[2d\	-le-	2f\	e-	.	.
=44	=44	=44	=44	=44	=44	=44	=44
!	!	!	!	!	!	!LO:TX:t=P:problem=jest to kontynuacja nuty z poprzedniego taktu	!
!LO:N:xstem:cue	!	!	!	!	!	!	!
2A\]	.	2d\]	.	1e	-lei-	2a\	.
2AA/	-i-	2c#X\	-i-	.	.	2a\	-i-
=45	=45	=45	=45	=45	=45	=45	=45
!LO:TX:a:t=2	!	!	!	!LO:TX:t=P:problem=cała nuta w podwójnym prostym nawiasie	!	!	!
!LO:TX:t=P:problem=inny zapis, cała nuta w podwójnym prostym nawiasie	!	!LO:TX:t=P:problem=cała nuta w podwójnym prostym nawiasie	!	!LO:TX:a:t=2	!	!LO:TX:t=P:problem=cała nuta w podwójnym prostym nawiasie	!
0D	-son.	0d	-son.	0f#X	-son.	0a	-son.
=46	=46	=46	=46	=46	=46	=46	=46
!LO:TX:a:t=Kyrie Da Capo.	!	!	!	!	!	!	!
.	.	.	.	.	.	.	.
!	!	!	!	!LO:LB:g=original	!	!LO:LB:g=original	!
=47||	=47||	=47||	=47||	=47||	=47||	=47||	=47||
*k[b-]	*	*k[b-]	*	*k[b-]	*	*k[b-]	*
*M2/2	*	*M2/2	*	*M2/2	*	*M2/2	*
*met(c|)	*	*met(c|)	*	*met(c|)	*	*met(c|)	*
*^	*	*	*	*	*	*	*
!LO:TX:b:t=1	!	!	!	!	!	!	!	!
!LO:TX:t=P:problem=w taktach 47-53 głosy wspomagające powinny brzmieć w kluczach odpowiednio altowym i sopranowym	!	!	!	!	!	!	!	!
!LO:TX:t=P:problem=w taktach 47-53 pierwszy głos mniejszą czcionką	!	!	!	!	!	!	!	!
!LO:TX:a:t=Alto	!	!	!LO:TX:a:t=10.	!	!	!	!LO:TX:b:t=3.	!
1B-	1r	Chri-	00r	.	1a	Chri-	0r	.
=48	=48	=48	=48	=48	=48	=48	=48	=48
!LO:TX:b:t=2	!	!	!	!	!	!	!	!
2G/	1r	-ste	.	.	2f\	-ste	.	.
2G/	.	e	.	.	2f\	e-	.	.
=49	=49	=49	=49	=49	=49	=49	=49	=49
!LO:TX:b:t=3	!	!	!	!	!	!	!	!
2A/	1r	.	.	.	2g\	-le-	1r	.
2B-/	.	.	.	.	2a\	-i-	.	.
=50	=50	=50	=50	=50	=50	=50	=50	=50
*	*^	*	*	*	*	*	*	*
!LO:TX:a:t=Sop	!	!	!	!	!	!	!	!	!
!LO:TX:t=P:problem=w takcie 50 trzeci głos mniejszą czcionką	!	!	!	!	!	!	!	!	!
!LO:TX:b:t=4	!	!	!	!	!	!	!	!	!
2G/	1r	1A	.	.	.	2f\	-son	1dd	Chri-
2E/	.	.	.	.	.	2d\	Chri-	.	.
*	*v	*v	*	*	*	*	*	*	*
=51	=51	=51	=51	=51	=51	=51	=51	=51
!LO:TX:b:t=5	!	!	!	!	!	!	!	!
2.G#X/	1r	.	00r	.	2.a\	-ste	2cc#X\	-ste
.	.	.	.	.	.	.	2cc#\	e-
4G#/	.	.	.	.	4g\	e-	.	.
=52	=52	=52	=52	=52	=52	=52	=52	=52
!LO:TX:b:t=6	!	!	!	!	!	!	!	!
2A/	1r	.	.	.	4f\	-le-	2dd\	-le-
.	.	.	.	.	4d\	.	.	.
2B-/	.	.	.	.	[2g\	.	2ee\	-i-
=53	=53	=53	=53	=53	=53	=53	=53	=53
!LO:TX:b:t=7.	!	!	!	!	!	!	!	!
4G#X/	1r	.	.	.	2g\]	.	4cc#X\	-son
4E/	.	.	.	.	.	.	4a\	e-
2A/	.	.	.	.	2f\	-i-	[2dd\	-le-
*v	*v	*	*	*	*	*	*	*
!LO:LB:g=original	!	!	!	!	!	!	!
=54	=54	=54	=54	=54	=54	=54	=54
!LO:TX:a:t=Basso.	!	!	!	!	!	!	!
1A	Chri-	.	.	2e\	-son	2dd\]	.
.	.	.	.	2e\	Chri-	2cc#X\	-i-
!	!	!	!	!LO:LB:g=original	!	!	!
=55	=55	=55	=55	=55	=55	=55	=55
2F\	-ste	0r	.	2.f\	-ste,	2dd\	-son
2F\	e-	.	.	.	.	2a\	Chri-
.	.	.	.	4f\	e-	.	.
=56	=56	=56	=56	=56	=56	=56	=56
2G\	-le-	.	.	2.e\	-le-	2g\	-ste
2A\	-i-	.	.	.	.	2e/	e-
.	.	.	.	4e\	-i-	.	.
!	!	!	!	!	!	!LO:LB:g=original	!
=57	=57	=57	=57	=57	=57	=57	=57
2F\	-son,	1d	Chri-	2d\	-son	2f/	-le-
2D\	Chri-	.	.	2d\	Chri-	2a\	-i-
=58	=58	=58	=58	=58	=58	=58	=58
2.A\	-ste	2c#X\	-ste	2e\	-ste	2.a\	-son
.	.	2c#\	e-	2e\	e-	.	.
4G\	e-	.	.	.	.	4a\	Chri-
!	!	!LO:LB:g=original	!	!	!	!	!
=59	=59	=59	=59	=59	=59	=59	=59
4F\	-le-	2d\	-le-	2f\	-le-	2a\	-ste
4D\	.	.	.	.	.	.	.
[2G\	.	2e\	-i-	2g\	-i-	2b-X\	Chri-
=60	=60	=60	=60	=60	=60	=60	=60
2G\]	.	4c#X\	-son	2e\	-son	2.a\	-ste
.	.	4A\	e-	.	.	.	.
2F\	-[[i son]],-	[2d\	-le-	2r	.	.	.
.	.	.	.	.	.	4a\	e-
=61	=61	=61	=61	=61	=61	=61	=61
!	!	!	!	!LO:TX:a:t=1.	!	!	!
1E	-i-	2d\]	.	1r	.	1g	-lei-
.	.	2c#X\	-i-	.	.	.	.
=62	=62	=62	=62	=62	=62	=62	=62
2D\	-son,	2d\	-son,	1d	Chri-	1f	-son,
4r	.	2f\	Chri-	.	.	.	.
4D\	e-	.	.	.	.	.	.
=63	=63	=63	=63	=63	=63	=63	=63
2.A\	-le-	2e\	-ste	2c#X\	-ste	2r	.
.	.	2e\	e-	2c#\	e-	2a\	Chri-
4G\	-Chri-	.	.	.	.	.	.
!LO:LB:g=original	!	!	!	!	!	!	!
=64	=64	=64	=64	=64	=64	=64	=64
2F\	-son	1f	-lei-	2d\	-le-	2.dd\	-ste
2D\	Chri-	.	.	2d\	-i-	.	.
.	.	.	.	.	.	4cc\	e-
!	!	!	!	!LO:LB:g=original	!	!	!
=65	=65	=65	=65	=65	=65	=65	=65
2.G\	-ste	1d	-son.	1d	-son	2b-X\	-lei-
.	.	.	.	.	.	2g\	-son
4F\	e-	.	.	.	.	.	.
=66	=66	=66	=66	=66	=66	=66	=66
2E\	-lei-	2c\	Chri-	1e	e-	2.cc\	e-
2C/	-son,	2c\	-ste	.	.	.	.
.	.	.	.	.	.	4b-X\	.
=67	=67	=67	=67	=67	=67	=67	=67
4F\	e-	2c\	e-	2f\	-lei-	1a	-lei-
4G\	.	.	.	.	.	.	.
4A\	.	2c\	-lei-	2f\	-son	.	.
4B-\	.	.	.	.	.	.	.
!	!	!	!	!	!	!LO:LB:g=original	!
=68	=68	=68	=68	=68	=68	=68	=68
4c\	-le-	1c	-son.	2e\	e-	2g\	-son
4C/	.	.	.	.	.	.	.
4F\	.	.	.	2f\	-lei-	2r	.
4F\	-i-	.	.	.	.	.	.
!	!	!LO:LB:g=original	!	!	!	!	!
=69	=69	=69	=69	=69	=69	=69	=69
1C	-son,	2r	.	1e	-son	1cc	Chri-
.	.	2c\	Chri-	.	.	.	.
=70	=70	=70	=70	=70	=70	=70	=70
!LO:TX:a:t=3.	!	!	!	!LO:TX:a:t=1.	!	!	!
0r	.	2.f\	-ste	1r	.	2a\	-ste
.	.	.	.	.	.	2f/	Chri-
.	.	4e\	Chri-	.	.	.	.
=71	=71	=71	=71	=71	=71	=71	=71
.	.	2d\	-ste	2r	.	2.b-X\	-ste
.	.	2d\	e-	2d\	e-	.	.
.	.	.	.	.	.	4a\	e-
=72	=72	=72	=72	=72	=72	=72	=72
1r	.	2.e\	-le-	2.g\	-le-	1g	-leison
.	.	4d\	-i-	4f\	-i-	.	.
=73	=73	=73	=73	=73	=73	=73	=73
1A	Chri-	1c#X	-son,	1e	-son	2r	.
.	.	.	.	.	.	2a\	Chri-
=74	=74	=74	=74	=74	=74	=74	=74
!	!	!LO:TX:a:t=2.	!	!	!	!	!
2F\	-ste	0r	.	1f	Chri-	[1dd	-ste
2F\	e-	.	.	.	.	.	.
=75	=75	=75	=75	=75	=75	=75	=75
2G\	-le-	.	.	2e\	-ste	2dd\]	.
2A\	-i-	.	.	2e\	Chri-	2cc#X\	e-
!	!	!	!	!LO:LB:g=original	!	!	!
=76	=76	=76	=76	=76	=76	=76	=76
2F\	-son	1d	Chri-	2f\	-ste	2dd\	-le-
2D\	e-	.	.	2f\	e-	2a\	-i-
=77	=77	=77	=77	=77	=77	=77	=77
2A\	-le-	2c#X\	-ste	2e\	-le-	2a\	-son
2D\	-i-	2d\	e-	2f\	.	[2a\	e-
=78	=78	=78	=78	=78	=78	=78	=78
2AA/	-son	2c#X\	-le-	2e\	.	2a\]	-lei-
2D\	e-	2d\	.	2f\	.	2a\	-son
!	!	!	!	!	!	!LO:LB:g=original	!
=79	=79	=79	=79	=79	=79	=79	=79
!	!	!	!	!	!	!LO:N:vis=1.	!
2A\	-le-	2c#X\	.	2e\	.	1a	e-
2D\	.	2d\	.	2f\	.	.	.
=80	=80	=80	=80	=80	=80	=80	=80
!	!	!	!	!	!	!LO:TX:t=P:problem=jest to kontynuacja nuty z poprzedniego taktu	!
1BB-X	-i-	1d	-i-	1d	-i-	2a\	.
.	.	.	.	.	.	2g\	-lei-
=81	=81	=81	=81	=81	=81	=81	=81
!LO:TX:t=P:problem=cała nuta w podwójnym prostym nawiasie	!	!LO:TX:t=P:problem=cała nuta w podwójnym prostym nawiasie	!	!LO:TX:t=P:problem=cała nuta w podwójnym prostym nawiasie	!	!LO:TX:t=P:problem=cała nuta w podwójnym prostym nawiasie	!
!LO:TX:a:t=2	!	!LO:TX:a:t=2	!	!LO:TX:a:t=2	!	!LO:TX:a:t=2	!
0AA	-son.	0c#X	-son.	0e	-son.	0a	-son.
=82	=82	=82	=82	=82	=82	=82	=82
!LO:TX:a:t=Kyrie Da Capo.	!	!LO:TX:a:t=Kyrie Da Capo.	!	!LO:TX:a:t=Kyrie Da Capo.	!	!LO:TX:a:t=Kyrie Da Capo.	!
.	.	.	.	.	.	.	.
==	==	==	==	==	==	==	==
*-	*-	*-	*-	*-	*-	*-	*-
!!!system-decoration: [(g1)]
!!!RDF**kern: >= above
!!!RDF**kern: <= below
!!!AIN: 1 alto 1 bass 1 soprn 1 tenor
!!!ENC: Anna Matuszewska
!!!END: 2021-01-31
!!!ENC: Andrzej Gręziak
!!!END: 2021-01-21
